src/chatbox-working.svg

<?xml version="1.0" encoding="utf-8"?>
<!-- Generated by IcoMoon.io -->
<!DOCTYPE svg PUBLIC "-//W3C//DTD SVG 1.1//EN" "http://www.w3.org/Graphics/SVG/1.1/DTD/svg11.dtd">
<svg version="1.1" xmlns="http://www.w3.org/2000/svg" xmlns:xlink="http://www.w3.org/1999/xlink" width="512" height="512" viewBox="0 0 512 512">
<path fill="#000000" d="M124.3 400h152.7c14.4 0 14.4 0.1 21.3 5.2s85.7 58.8 85.7 58.8v-64h3.7c42.2 0 76.3-31.8 76.3-71.4v-208.9c0-39.6-34.2-71.7-76.3-71.7h-263.4c-42.1 0-76.3 32.1-76.3 71.7v208.9c0 39.6 34.2 71.4 76.3 71.4zM352.1 192c17.7 0 32 14.3 32 32s-14.3 32-32 32c-17.7 0-32-14.3-32-32s14.3-32 32-32zM256.1 192c17.7 0 32 14.3 32 32s-14.3 32-32 32c-17.7 0-32-14.3-32-32s14.3-32 32-32zM160.1 192c17.7 0 32 14.3 32 32s-14.3 32-32 32c-17.7 0-32-14.3-32-32s14.3-32 32-32z"></path>
</svg>

<?xml version="1.0" encoding="utf-8"?>
<!-- Generator: Adobe Illustrator 16.2.1, SVG Export Plug-In . SVG Version: 6.00 Build 0)  -->
<!DOCTYPE svg PUBLIC "-//W3C//DTD SVG 1.1//EN" "http://www.w3.org/Graphics/SVG/1.1/DTD/svg11.dtd">
<svg version="1.1" id="Layer_1" xmlns="http://www.w3.org/2000/svg" xmlns:xlink="http://www.w3.org/1999/xlink" x="0px" y="0px"
	 width="512px" height="512px" viewBox="0 0 512 512" style="enable-background:new 0 0 512 512;" xml:space="preserve">
<path d="M124.3,400H277c14.4,0,14.4,0.1,21.3,5.2S384,464,384,464v-64h3.7c42.2,0,76.3-31.8,76.3-71.4V119.7
	c0-39.6-34.2-71.7-76.3-71.7H124.3C82.2,48,48,80.1,48,119.7v208.9C48,368.2,82.2,400,124.3,400z M352.1,192c17.7,0,32,14.3,32,32
	c0,17.7-14.3,32-32,32c-17.7,0-32-14.3-32-32C320.1,206.3,334.4,192,352.1,192z M256.1,192c17.7,0,32,14.3,32,32
	c0,17.7-14.3,32-32,32c-17.7,0-32-14.3-32-32C224.1,206.3,238.4,192,256.1,192z M160.1,192c17.7,0,32,14.3,32,32
	c0,17.7-14.3,32-32,32c-17.7,0-32-14.3-32-32C128.1,206.3,142.4,192,160.1,192z"/>
</svg>
